app/images/icons/youtube-white.svg

<svg fill="none" height="18" viewBox="0 0 23 18" width="23" xmlns="http://www.w3.org/2000/svg"><path clip-rule="evenodd" d="m22.7084 4.43473c0-1.90778-1.5465-3.454338-3.4543-3.454338h-15.68508c-1.90778 0-3.454335 1.546558-3.454335 3.454338v9.15797c0 .9162.363938 1.7948 1.011755 2.4426.64781.6478 1.52643 1.0118 2.44258 1.0118h15.68508c1.9078 0 3.4543-1.5466 3.4543-3.4544zm-13.80714 8.53517v-8.69604l6.79824 4.34805z" fill="#fff" fill-rule="evenodd"/></svg>

<svg width="23" height="18" viewBox="0 0 23 18" fill="none" xmlns="http://www.w3.org/2000/svg">
<path fill-rule="evenodd" clip-rule="evenodd" d="M22.7084 4.43473C22.7084 2.52695 21.1619 0.980392 19.2541 0.980392H3.56902C1.66124 0.980392 0.114685 2.52695 0.114685 4.43473V13.5927C0.114685 14.5089 0.478623 15.3875 1.12644 16.0353C1.77425 16.6831 2.65287 17.0471 3.56902 17.0471H19.2541C21.1619 17.0471 22.7084 15.5005 22.7084 13.5927V4.43473ZM8.90126 12.9699V4.27386L15.6995 8.62191L8.90126 12.9699Z" fill="white"/>
</svg>
